build/img/bosch-grey.svg

<svg width="103" height="40" viewBox="0 0 103 40" fill="none" xmlns="http://www.w3.org/2000/svg">
<path d="M10.9976 10C4.92956 10 0 14.9294 0 20.9972C0 27.0651 4.92956 31.9945 10.9976 31.9945C17.0657 31.9945 21.9953 27.0651 21.9953 20.9972C21.9953 14.9294 17.0657 10 10.9976 10ZM10.9976 30.8923C5.53516 30.8923 1.10219 26.4474 1.10219 20.9972C1.10219 15.5471 5.53516 11.1021 10.9976 11.1021C16.4601 11.1021 20.8931 15.5471 20.8931 20.9972C20.8931 26.4474 16.4601 30.8923 10.9976 30.8923Z" fill="#A8B1BC"/>
<path d="M14.9218 13.9474C14.8855 13.9232 14.8371 13.9111 14.7886 13.9111C14.6433 13.9111 14.5343 14.0201 14.5343 14.1654V17.6051C14.5343 17.7262 14.4374 17.8231 14.3162 17.8231H7.65467C7.53355 17.8231 7.44877 17.7262 7.43666 17.6051V14.1654C7.43666 14.117 7.42455 14.0807 7.40032 14.0322C7.32765 13.9111 7.1702 13.8748 7.04908 13.9474C4.59035 15.4614 3.10059 18.0896 3.10059 20.9963C3.10059 23.9031 4.59035 26.5313 7.0733 28.0452C7.10964 28.0695 7.15808 28.0816 7.20653 28.0816C7.35187 28.0816 7.46088 27.9726 7.46088 27.8272V24.3876C7.46088 24.2665 7.55778 24.1817 7.6789 24.1696H14.3405C14.4616 24.1696 14.5585 24.2665 14.5585 24.3876V27.8272C14.5585 27.8757 14.5706 27.912 14.5948 27.9605C14.6675 28.0816 14.8249 28.1179 14.9461 28.0452C17.429 26.5313 18.9188 23.9031 18.9188 20.9963C18.9188 18.0896 17.4048 15.4614 14.9218 13.9474ZM6.17702 25.308L6.21335 25.7198L5.94689 25.3928C3.89997 22.8131 3.89997 19.1675 5.94689 16.5878L6.17702 16.2971L6.21335 16.2607L6.17702 16.6846C6.14068 17.0238 6.12857 17.375 6.12857 17.7262V24.2543C6.12857 24.6056 6.15279 24.9568 6.17702 25.308ZM14.5343 22.6435C14.5343 22.7646 14.4374 22.8615 14.3162 22.8615H7.65467C7.53355 22.8615 7.44877 22.7646 7.43666 22.6435V19.3492C7.43666 19.2281 7.53355 19.1312 7.65467 19.1312H14.3162C14.4374 19.1312 14.5343 19.2281 14.5343 19.3492V22.6435ZM16.0361 25.3928L15.7697 25.7198L15.806 25.308C15.8423 24.9689 15.8545 24.6177 15.8545 24.2665V17.7262C15.8545 17.375 15.8423 17.0238 15.806 16.6846L15.7939 16.503L15.7818 16.3092V16.2607L16.0361 16.5878C17.0293 17.8231 17.5743 19.3976 17.5743 20.9842C17.5743 22.5708 17.0293 24.1574 16.0361 25.3928Z" fill="#A8B1BC"/>
<path d="M38.5887 20.8023C38.5281 20.7781 38.4554 20.7539 38.4554 20.6812C38.4554 20.6328 38.4797 20.5964 38.5281 20.5722C38.6129 20.5359 40.7083 19.785 40.7083 17.3142C40.7083 14.5649 38.8551 12.9299 35.7302 12.9299H28.1603V29.0866H36.4206C38.8309 29.0866 41.4229 27.3789 41.4229 24.6296C41.4229 22.0014 39.4365 21.0809 38.5887 20.8023ZM31.9755 16.2363C31.9755 16.1757 32.024 16.1273 32.0845 16.1273H35.0883C36.0815 16.1273 36.7598 16.7934 36.7598 17.7866C36.7598 18.5617 36.1542 19.3974 35.0156 19.3974H32.0845C32.024 19.3974 31.9755 19.349 31.9755 19.2884V16.2363ZM35.0883 25.9013H32.0845C32.024 25.9013 31.9755 25.8528 31.9755 25.7923V22.5706C31.9755 22.5101 32.024 22.4616 32.0845 22.4616H35.0156C36.457 22.4616 37.2806 23.0793 37.2806 24.1693C37.2806 25.2957 36.5175 25.9013 35.0883 25.9013ZM66.9912 19.3611L66.4098 19.24C65.1017 18.9614 63.83 18.6102 63.83 17.4838C63.83 16.3574 64.8837 15.8487 65.9253 15.8487C67.1486 15.8487 68.3598 16.3937 69.2803 17.3384L71.6785 14.9646C70.649 13.8261 68.8201 12.5181 65.8648 12.5181C62.3039 12.5181 59.9057 14.5407 59.9057 17.5565C59.9057 20.7418 62.4129 21.9408 64.5203 22.3889L65.0896 22.5101C67.1365 22.9461 68.1055 23.2731 68.1055 24.4358C68.1055 25.4774 67.1729 26.1677 65.7921 26.1677C64.1691 26.1677 62.7278 25.4532 61.6377 24.1088L59.179 26.519C60.4871 28.0692 62.2191 29.4742 65.8405 29.4742C68.9291 29.4742 72.0661 27.6817 72.0661 24.242C72.054 20.7176 69.6558 19.9182 66.9912 19.3611ZM98.9062 12.9299V18.8403C98.9062 18.9008 98.8577 18.9493 98.7972 18.9493H93.8313C93.7707 18.9493 93.7222 18.9008 93.7222 18.8403V12.9299H89.6526V29.0866H93.7222V22.7402C93.7222 22.6796 93.7707 22.6312 93.8313 22.6312H98.7972C98.8577 22.6312 98.9062 22.6796 98.9062 22.7402V29.0866H103V12.9299H98.9062ZM81.465 25.7802C79.6361 25.7802 77.6618 24.2541 77.6618 20.8992C77.6618 17.835 79.5149 16.2363 81.3438 16.2363C82.6761 16.2363 83.6088 16.7934 84.3476 18.0288L87.4725 15.9577C85.8737 13.6081 83.9721 12.5423 81.3196 12.5423C76.1236 12.5423 73.7981 16.745 73.7981 20.8992C73.7981 25.9497 76.8745 29.4742 81.2712 29.4742C84.5414 29.4742 86.0312 28.2751 87.5936 26.0587L84.4445 23.9392C83.742 25.0777 82.9789 25.7802 81.465 25.7802ZM50.5674 12.5181C46.1223 12.5181 43.1428 15.9214 43.1428 20.9961C43.1428 26.0708 46.1223 29.4742 50.5674 29.4742C55.0125 29.4742 57.992 26.0708 57.992 20.9961C57.992 15.9214 55.0125 12.5181 50.5674 12.5181ZM50.5674 25.7802C48.3872 25.7802 46.9822 23.9029 46.9822 20.9961C46.9822 18.1015 48.3872 16.2363 50.5674 16.2363C52.7596 16.2363 54.1767 18.1015 54.1767 20.9961C54.1767 23.9029 52.7596 25.7802 50.5674 25.7802Z" fill="#A8B1BC"/>
</svg>

<svg width="103" height="40" viewBox="0 0 103 40" fill="none" xmlns="http://www.w3.org/2000/svg"><path d="M10.998 10C4.93 10 0 14.93 0 20.997c0 6.068 4.93 10.997 10.998 10.997s10.997-4.929 10.997-10.997S17.065 10 10.998 10zm0 20.892c-5.463 0-9.896-4.445-9.896-9.895 0-5.45 4.433-9.895 9.896-9.895 5.462 0 9.895 4.445 9.895 9.895 0 5.45-4.433 9.895-9.895 9.895z" fill="#A8B1BC"/><path d="M14.922 13.947a.244.244 0 00-.133-.036.248.248 0 00-.255.254v3.44a.217.217 0 01-.218.218H7.655c-.121 0-.206-.097-.218-.218v-3.44a.276.276 0 00-.037-.133.255.255 0 00-.35-.085 8.23 8.23 0 00-3.95 7.05c0 2.906 1.49 5.534 3.973 7.048a.244.244 0 00.134.037.248.248 0 00.254-.255v-3.44c0-.12.097-.205.218-.217h6.662c.12 0 .218.096.218.218v3.44a.28.28 0 00.036.133c.072.12.23.157.351.084 2.483-1.514 3.973-4.142 3.973-7.049 0-2.906-1.514-5.535-3.997-7.049zM6.177 25.308l.036.412-.266-.327a7.08 7.08 0 010-8.805l.23-.29.036-.037-.036.424a9.84 9.84 0 00-.048 1.041v6.528c0 .352.024.703.048 1.054zm8.357-2.665a.217.217 0 01-.218.218H7.655c-.121 0-.206-.096-.218-.218V19.35c0-.12.097-.218.218-.218h6.661c.121 0 .218.097.218.218v3.294zm1.502 2.75l-.266.327.036-.412c.036-.34.049-.69.049-1.041v-6.54a9.85 9.85 0 00-.049-1.042l-.012-.182-.012-.194v-.048l.254.327a7.062 7.062 0 011.538 4.396 7.096 7.096 0 01-1.538 4.409zm22.553-4.591c-.06-.024-.134-.048-.134-.12 0-.05.025-.086.073-.11.085-.036 2.18-.787 2.18-3.258 0-2.75-1.853-4.384-4.978-4.384h-7.57v16.157h8.26c2.41 0 5.003-1.708 5.003-4.457 0-2.629-1.986-3.55-2.834-3.828zm-6.613-4.566c0-.06.048-.109.108-.109h3.004c.993 0 1.672.666 1.672 1.66 0 .775-.606 1.61-1.744 1.61h-2.931a.109.109 0 01-.11-.109v-3.052zm3.112 9.665h-3.004a.109.109 0 01-.109-.109v-3.221c0-.06.049-.11.11-.11h2.93c1.442 0 2.266.618 2.266 1.708 0 1.127-.764 1.732-2.193 1.732zm31.903-6.54l-.581-.121c-1.308-.279-2.58-.63-2.58-1.756 0-1.127 1.054-1.635 2.095-1.635 1.224 0 2.435.545 3.355 1.49l2.398-2.374c-1.029-1.139-2.858-2.447-5.813-2.447-3.561 0-5.96 2.023-5.96 5.038 0 3.186 2.508 4.385 4.615 4.833l.57.121c2.046.436 3.016.763 3.016 1.926 0 1.041-.933 1.732-2.314 1.732-1.623 0-3.064-.715-4.154-2.06l-2.459 2.411c1.308 1.55 3.04 2.955 6.662 2.955 3.088 0 6.225-1.792 6.225-5.232-.012-3.524-2.41-4.324-5.075-4.88zm31.915-6.431v5.91a.11.11 0 01-.109.11h-4.966a.109.109 0 01-.109-.11v-5.91h-4.07v16.157h4.07V22.74a.11.11 0 01.11-.109h4.965c.06 0 .11.049.11.11v6.346H103V12.93h-4.094zM81.465 25.78c-1.829 0-3.803-1.526-3.803-4.88 0-3.065 1.853-4.664 3.682-4.664 1.332 0 2.265.557 3.004 1.793l3.124-2.071c-1.598-2.35-3.5-3.416-6.152-3.416-5.196 0-7.522 4.203-7.522 8.357 0 5.05 3.076 8.575 7.473 8.575 3.27 0 4.76-1.199 6.323-3.415l-3.15-2.12c-.702 1.139-1.465 1.841-2.979 1.841zM50.567 12.518c-4.445 0-7.424 3.403-7.424 8.478 0 5.075 2.98 8.478 7.424 8.478 4.446 0 7.425-3.403 7.425-8.478 0-5.075-2.98-8.478-7.425-8.478zm0 13.262c-2.18 0-3.585-1.877-3.585-4.784 0-2.894 1.405-4.76 3.585-4.76 2.193 0 3.61 1.866 3.61 4.76 0 2.907-1.417 4.784-3.61 4.784z" fill="#A8B1BC"/></svg>
